app/images/icons/u_shopping-basket.svg

<svg width="24" height="24" viewBox="0 0 24 24" fill="none" xmlns="http://www.w3.org/2000/svg">
<path d="M14 18C14.2653 18 14.5196 17.8946 14.7071 17.7071C14.8947 17.5196 15 17.2652 15 17V15C15 14.7348 14.8947 14.4804 14.7071 14.2929C14.5196 14.1054 14.2653 14 14 14C13.7348 14 13.4805 14.1054 13.2929 14.2929C13.1054 14.4804 13 14.7348 13 15V17C13 17.2652 13.1054 17.5196 13.2929 17.7071C13.4805 17.8946 13.7348 18 14 18ZM10 18C10.2653 18 10.5196 17.8946 10.7071 17.7071C10.8947 17.5196 11 17.2652 11 17V15C11 14.7348 10.8947 14.4804 10.7071 14.2929C10.5196 14.1054 10.2653 14 10 14C9.73482 14 9.48047 14.1054 9.29293 14.2929C9.10539 14.4804 9.00004 14.7348 9.00004 15V17C9.00004 17.2652 9.10539 17.5196 9.29293 17.7071C9.48047 17.8946 9.73482 18 10 18ZM19 6H17.62L15.89 2.55C15.8372 2.42305 15.7587 2.30837 15.6595 2.21312C15.5603 2.11788 15.4426 2.04411 15.3136 1.99644C15.1846 1.94876 15.0472 1.9282 14.9099 1.93604C14.7726 1.94388 14.6384 1.97996 14.5157 2.04201C14.3929 2.10405 14.2843 2.19075 14.1966 2.29666C14.1089 2.40258 14.044 2.52545 14.006 2.65759C13.9679 2.78973 13.9575 2.9283 13.9754 3.06464C13.9933 3.20099 14.0391 3.33217 14.11 3.45L15.38 6H8.62004L9.89004 3.45C9.9871 3.2169 9.9924 2.95572 9.90486 2.71888C9.81732 2.48205 9.64343 2.28709 9.4181 2.17316C9.19277 2.05923 8.93268 2.03476 8.69005 2.10466C8.44742 2.17455 8.24022 2.33365 8.11004 2.55L6.38004 6H5.00004C4.29323 6.01075 3.61291 6.27074 3.07909 6.73413C2.54526 7.19752 2.19221 7.83452 2.08221 8.5328C1.9722 9.23109 2.11231 9.94578 2.47782 10.5508C2.84333 11.1559 3.41076 11.6125 4.08004 11.84L4.82004 19.3C4.89466 20.0426 5.24338 20.7307 5.79811 21.2299C6.35284 21.7292 7.07374 22.0037 7.82004 22H16.2C16.9463 22.0037 17.6672 21.7292 18.222 21.2299C18.7767 20.7307 19.1254 20.0426 19.2 19.3L19.94 11.84C20.6108 11.6118 21.1791 11.1536 21.5443 10.5465C21.9096 9.93939 22.0482 9.22263 21.9356 8.52314C21.823 7.82365 21.4665 7.18658 20.9292 6.72477C20.3919 6.26296 19.7085 6.00621 19 6ZM17.19 19.1C17.1652 19.3475 17.0489 19.5769 16.864 19.7433C16.6791 19.9097 16.4388 20.0012 16.19 20H7.81004C7.56127 20.0012 7.32097 19.9097 7.13606 19.7433C6.95115 19.5769 6.83491 19.3475 6.81004 19.1L6.10004 12H17.9L17.19 19.1ZM19 10H5.00004C4.73482 10 4.48047 9.89464 4.29293 9.7071C4.10539 9.51957 4.00004 9.26521 4.00004 9C4.00004 8.73478 4.10539 8.48043 4.29293 8.29289C4.48047 8.10535 4.73482 8 5.00004 8H19C19.2653 8 19.5196 8.10535 19.7071 8.29289C19.8947 8.48043 20 8.73478 20 9C20 9.26521 19.8947 9.51957 19.7071 9.7071C19.5196 9.89464 19.2653 10 19 10Z" fill="#373826"/>
</svg>

<svg width="24" height="24" fill="none" xmlns="http://www.w3.org/2000/svg"><path d="M14 18a1 1 0 001-1v-2a1 1 0 10-2 0v2a1 1 0 001 1zm-4 0a1 1 0 001-1v-2a1 1 0 10-2 0v2a1 1 0 001 1zm9-12h-1.38l-1.73-3.45a.999.999 0 10-1.78.9L15.38 6H8.62l1.27-2.55a1 1 0 00-1.78-.9L6.38 6H5a3 3 0 00-.92 5.84l.74 7.46a3 3 0 003 2.7h8.38a3 3 0 003-2.7l.74-7.46A3 3 0 0019 6zm-1.81 13.1a1 1 0 01-1 .9H7.81a1 1 0 01-1-.9L6.1 12h11.8l-.71 7.1zM19 10H5a1 1 0 010-2h14a1 1 0 110 2z" fill="#373826"/></svg>
